src/assets/icons/shapes,fancy,filled-star4.svg

<svg width="48" height="48" viewBox="0 0 48 48" fill="none" xmlns="http://www.w3.org/2000/svg">
<path d="M22.2846 4.86191C23.0505 3.58402 23.4335 2.94508 24 2.94508C24.5665 2.94508 24.9495 3.58402 25.7154 4.86191L31.9873 15.3255C32.1154 15.5392 32.1795 15.6461 32.2667 15.7333C32.3539 15.8205 32.4608 15.8846 32.6745 16.0127L43.1381 22.2846C44.416 23.0505 45.0549 23.4335 45.0549 24C45.0549 24.5665 44.416 24.9495 43.1381 25.7154L32.6745 31.9873C32.4608 32.1154 32.3539 32.1795 32.2667 32.2667C32.1795 32.3539 32.1154 32.4608 31.9873 32.6745L25.7154 43.1381C24.9495 44.416 24.5665 45.0549 24 45.0549C23.4335 45.0549 23.0505 44.416 22.2846 43.1381L16.0127 32.6745C15.8846 32.4608 15.8205 32.3539 15.7333 32.2667C15.6461 32.1795 15.5392 32.1154 15.3255 31.9873L4.86191 25.7154C3.58402 24.9495 2.94508 24.5665 2.94508 24C2.94508 23.4335 3.58402 23.0505 4.86191 22.2846L15.3255 16.0127C15.5392 15.8846 15.6461 15.8205 15.7333 15.7333C15.8205 15.6461 15.8846 15.5392 16.0127 15.3255L22.2846 4.86191Z" fill="black"/>
</svg>

<svg xmlns="http://www.w3.org/2000/svg" width="48" height="48" fill="none" viewBox="0 0 48 48">
  <path fill="#000" d="M22.285 4.862C23.05 3.584 23.433 2.945 24 2.945c.567 0 .95.639 1.715 1.917l6.272 10.463c.128.214.192.321.28.408.087.087.194.152.407.28l10.464 6.272c1.278.765 1.917 1.148 1.917 1.715 0 .567-.639.95-1.917 1.715l-10.463 6.272c-.214.128-.321.192-.408.28-.088.087-.152.194-.28.407l-6.272 10.464c-.765 1.278-1.148 1.917-1.715 1.917-.567 0-.95-.639-1.715-1.917l-6.272-10.463c-.128-.214-.193-.321-.28-.408-.087-.088-.194-.152-.408-.28L4.863 25.715C3.584 24.95 2.945 24.567 2.945 24c0-.567.639-.95 1.917-1.715l10.463-6.272c.214-.128.321-.193.408-.28.087-.087.152-.194.28-.408l6.272-10.463z"/>
</svg>
